X:1
T:Malawi, 76.76 D
T:Malawi, 76.76 D
T:Ira C. Brackeen, 1922
T:Public Domain Courtesy of the Cyber Hymnal™
C:Ira C. Brackeen, 1922
Z:Public Domain
Z:Courtesy of the Cyber Hymnal™
%%score ( 1 2 ) ( 3 4 )
L:1/8
Q:1/4=90
M:3/4
K:Ab
V:1 treble 
V:2 treble 
V:3 bass 
V:4 bass 
V:1
 [CE][CA] | [Ec]3 [Ec] [EB][EA] | [DF] [CE]3 [Ec][Ec] | [EA]3 [EA] [Ec][EA] | [EB]4 [CE][CA] | %5
 [Ec]3 [Ec] [EB][EA] | [DF] [CE]3 [EA][EB] | [Ec]3 [Ee] [EA][EB] | !fermata![EA]4 [Ac][Ae] | %9
 [Ae]3 [Ac] [Ac][EA] | [Ac] [Ac]3 [Ac][Ae] | [Ae]3 [Ac] [Ac]A | [GB]4 [CE][CA] | %13
 [Ec]3 [Ec] [EB][EA] | [DF] [CE]3 [EA][DF] | [CE]3 [CE] [DF][DG] | !fermata![CA]4 |] %17
V:2
 x2 | x6 | x6 | x6 | x6 | x6 | x6 | x6 | x6 | x6 | x6 | x5 A | x6 | x6 | x6 | x6 | x4 |] %17
V:3
 [A,,A,][A,,A,] | [A,,A,]3 [A,,A,] [A,,C][A,,C] | [A,,A,] [A,,A,]3 [A,,A,][A,,A,] | %3
 [A,,C]3 [A,,C] [A,,A,][C,A,] | [E,G,]4 [A,,A,][A,,A,] | [A,,A,]3 [A,,A,] [A,,C][A,,C] | %6
 [A,,A,] [A,,A,]3 [C,A,][E,G,] | A,3 [C,A,] [E,C][E,D] | !fermata![A,,C]4 [A,E][A,C] | %9
 [A,C]3 [A,E] [A,E][A,C] | [A,E] [A,E]3 [A,E][A,C] | [A,C]3 [A,E] [A,E][C,E] | %12
 [E,E]4 [A,,A,][A,,A,] | [A,,A,]3 [A,,A,] [A,,C][A,,C] | [A,,A,] [A,,A,]3 [C,A,][D,A,] | %15
 [E,A,]3 [E,A,] [E,G,][E,B,] | !fermata![A,,A,]4 |] %17
V:4
 x2 | x6 | x6 | x6 | x6 | x6 | x6 | A,3 x3 | x6 | x6 | x6 | x6 | x6 | x6 | x6 | x6 | x4 |] %17

